svgs/duotone/arrow-up-from-arc.svg

<svg xmlns="http://www.w3.org/2000/svg" viewBox="0 0 512 512"><!--! Font Awesome Pro 6.5.1 by @fontawesome - https://fontawesome.com License - https://fontawesome.com/license (Commercial License) Copyright 2023 Fonticons, Inc. --><defs><style>.fa-secondary{opacity:.4}</style></defs><path class="fa-secondary" d="M64 256c0 106 86 192 192 192s192-86 192-192c0-17.7 14.3-32 32-32s32 14.3 32 32c0 141.4-114.6 256-256 256S0 397.4 0 256c0-17.7 14.3-32 32-32s32 14.3 32 32z"/><path class="fa-primary" d="M121.4 166.6c-12.5-12.5-12.5-32.8 0-45.3l112-112c12.5-12.5 32.8-12.5 45.3 0l112 112c12.5 12.5 12.5 32.8 0 45.3s-32.8 12.5-45.3 0L288 109.3 288 320c0 17.7-14.3 32-32 32s-32-14.3-32-32l0-210.7-57.4 57.4c-12.5 12.5-32.8 12.5-45.3 0z"/></svg>

<svg xmlns="http://www.w3.org/2000/svg" viewBox="0 0 512 512"><!--! Font Awesome Pro 6.1.1 by @fontawesome - https://fontawesome.com License - https://fontawesome.com/license (Commercial License) Copyright 2022 Fonticons, Inc. --><defs><style>.fa-secondary{opacity:.4}</style></defs><path class="fa-primary" d="M121.4 166.6C108.9 154.1 108.9 133.9 121.4 121.4L233.4 9.372C245.9-3.124 266.1-3.124 278.6 9.372L390.6 121.4C403.1 133.9 403.1 154.1 390.6 166.6C378.1 179.1 357.9 179.1 345.4 166.6L288 109.3V320C288 337.7 273.7 352 256 352C238.3 352 224 337.7 224 320V109.3L166.6 166.6C154.1 179.1 133.9 179.1 121.4 166.6H121.4z"/><path class="fa-secondary" d="M64 256C64 362 149.1 448 256 448C362 448 448 362 448 256C448 238.3 462.3 224 480 224C497.7 224 512 238.3 512 256C512 397.4 397.4 512 256 512C114.6 512 0 397.4 0 256C0 238.3 14.33 224 32 224C49.67 224 64 238.3 64 256z"/></svg>
